X: 24457
T: Lucky Day
R: waltz
M: 3/4
K: Dmajor
|:A de|f3ed2|g4fg|e6-|e3A de|f3ed2|B2A2G2|E6-|E3A de|
f3ed2|B3AG2|FAdefa|g2e2AG|FAdBcB|Acecef|d6-|d3:|
c2|:B4AB|F4dc|BcBAFD|E4DE|F3D FA|d2c2B2|F6-|F3A da|
g3f gf|e3a ag|fgfedA|B4AG|F3A dB|cd/c/ B2c2|d6-|1 d3c dc:|2 d3||

